X:1
T: The Marquis of Lorne's Strathspey
C:
R:Strathspey
Q: 128
K:F
M:4/4
L:1/16
|:cB|AB3 GA3 F4 F2AB|c2F2 d2F2 E2G2 G2cB|AB3 GA3 F4 F2Ac|dg3 ce3 f3g f2cB|
AB3 GA3 F4 F2AB|c2F2 d2F2 E2G2 G2cB|AB3 GA3 F4 F2Ac|dg3 ce3 f3g f2fg|
ac3 fa3 gc3 fB3|A3f dcBA B2G2 G2fg|af3 c'c3 dB3 gf3|efg2 c2b2 a2f2 f2fg|
ac3 db3 ca3 Bg3|A3f dcBA B2G2 G2cB|AB3 G3A F4 Fc3|d2b2 agfe fgag f2:|
